X: 229
T:Mazurka d'Auvergne
M:3/4
L:1/8
Q:140
C:trad
O:France
A:Auvergne
Z:S.Piron
K:C
G>c c>B c2|G>e e>d e2|f>e d>c B>c|d>c B>A A>G|
G>c c>B c2|G>e e>d e2|f>e d>c B>d|1c4 z2:|2c4 ef|
|:g2 ga gf|e2c2 de|fe fg fe|d4 ef|
g2 ga gf|e2c2 de|fe dc Bd|1c4 ef:|2c4 z2||
W:
W: From "Falaleiro" http://home.t-online.de/home/pheld/homepage.htm
